symbolic/24x24/devices/battery.svg

<svg xmlns="http://www.w3.org/2000/svg" width="24" height="24" version="1"><rect style="opacity:.2" width="16" height="18" x="4" y="4.5" rx="1" ry="1"/><rect style="fill:#4f4f4f" width="16" height="18" x="4" y="4" rx="1" ry="1"/><path style="fill:#8e8e8e" d="M7 2h10v2H7z"/><path style="opacity:.2" d="M6 6.5v4h12v-4zm0 5v4h12v-4zm0 5v4h12v-4z"/><path style="fill:#c0f957" d="M6 6v4h12V6H6zm0 5v4h12v-4H6zm0 5v4h12v-4H6z"/><path style="opacity:.2;fill:#fff" d="M7 2v.5h10V2H7z"/><path style="fill:#fff;opacity:.2" d="M6 6v.5h12V6H6zm0 5v.5h12V11H6zm0 5v.5h12V16H6z"/></svg>

<svg xmlns="http://www.w3.org/2000/svg" width="24" height="24" version="1">
 <rect style="opacity:0.2" width="16" height="18" x="4" y="4.5" rx="1" ry="1"/>
 <rect style="fill:#4f4f4f" width="16" height="18" x="4" y="4" rx="1" ry="1"/>
 <rect style="fill:#8e8e8e" width="10" height="2" x="7" y="2"/>
 <path style="opacity:0.2" d="m 6,6.5 v 4 h 12 v -4 z m 0,5 v 4 h 12 v -4 z m 0,5 v 4 h 12 v -4 z"/>
 <path style="fill:#c0f957" d="M 6 6 L 6 10 L 18 10 L 18 6 L 6 6 z M 6 11 L 6 15 L 18 15 L 18 11 L 6 11 z M 6 16 L 6 20 L 18 20 L 18 16 L 6 16 z"/>
 <path style="opacity:0.2;fill:#ffffff" d="M 7,2 7,2.5 17,2.5 17,2 7,2 Z"/>
 <path style="fill:#ffffff;opacity:0.2" d="M 6 6 L 6 6.5 L 18 6.5 L 18 6 L 6 6 z M 6 11 L 6 11.5 L 18 11.5 L 18 11 L 6 11 z M 6 16 L 6 16.5 L 18 16.5 L 18 16 L 6 16 z"/>
</svg>
